images/Vector (1).svg

<svg width="30" height="30" viewBox="0 0 30 30" fill="none" xmlns="http://www.w3.org/2000/svg">
<path d="M4.15453 10.5048C4.35813 10.0489 4.89278 9.84443 5.34869 10.048C5.80459 10.2516 6.00908 10.7863 5.80548 11.2422C5.80327 11.2472 5.80101 11.2521 5.79871 11.257C3.5067 16.2537 5.6993 22.1624 10.696 24.4544C15.6927 26.7464 21.6013 24.5538 23.8933 19.5571C26.1853 14.5604 23.9927 8.65173 18.996 6.35975C15.9232 4.95023 12.3449 5.19674 9.49442 7.01437L13.0176 9.33984C13.4344 9.61474 13.5494 10.1754 13.2746 10.5923C13.2745 10.5924 13.2744 10.5925 13.2743 10.5926C12.9994 11.0094 12.4387 11.1245 12.0219 10.8496C12.0217 10.8495 12.0217 10.8495 12.0216 10.8494L7.24999 7.699C6.92508 7.4846 6.7739 7.08626 6.87471 6.71024L8.27864 1.4707C8.40787 0.988392 8.9036 0.702182 9.38591 0.831415C9.86821 0.960648 10.1544 1.45638 10.0252 1.93868L9.17044 5.12866C14.8138 2.0563 21.8793 4.1405 24.9516 9.78383C28.024 15.4272 25.9399 22.4927 20.2965 25.5651C14.6531 28.6375 7.58761 26.5533 4.5152 20.9099C2.76326 17.6918 2.6296 13.8365 4.15453 10.5048Z" fill="white"/>
</svg>

<svg width="30" height="30" fill="none" xmlns="http://www.w3.org/2000/svg"><path d="M4.155 10.505a.904.904 0 111.644.752c-2.292 4.997-.1 10.905 4.897 13.197s10.905.1 13.197-4.897.1-10.905-4.897-13.197a9.954 9.954 0 00-9.502.654l3.524 2.326a.904.904 0 11-.996 1.51L7.25 7.698a.904.904 0 01-.375-.989l1.404-5.24a.904.904 0 111.746.469l-.855 3.19c5.644-3.073 12.71-.988 15.782 4.655 3.072 5.643.988 12.709-4.655 15.781-5.644 3.072-12.71.988-15.782-4.655a11.635 11.635 0 01-.36-10.405z" fill="#fff"/></svg>
